X: 10
T: Cooley's
Z: JACKB
S: https://thesession.org/tunes/1#setting25140
R: reel
M: 4/4
L: 1/8
K: Edor
|:D2|EBBA B2 EB|B2 AB dBAF|DF F2 A3B|AF F2 dBAF|
EBBA B2 EB|B2 AB defg|afec dBAF|DEFD E2:|
|:gf|eB B2 egfg|eB B2 gedB|A2 FA DAFA|A2 FA defg|
eB B2 egfg|eB B2 defg|afec dBAF|DEFD E2:|
